X:1
T:Knox, CMD
T:Knox, CMD
T:James C. Knox, 1907
T:Public Domain Courtesy of the Cyber Hymnal™
C:James C. Knox, 1907
Z:Public Domain
Z:Courtesy of the Cyber Hymnal™
%%score ( 1 2 ) ( 3 4 )
L:1/8
Q:1/4=110
M:4/4
K:Ab
V:1 treble 
V:2 treble 
V:3 bass 
V:4 bass 
V:1
 E2 | [Ec]2 [Ec]2 [Ee]2 [EA]2 | [FA]2 [DF]2 [DE]2 [DE]2 | [CE]2 E2 [EF]2 [DA]2 | A6 [Ec]2 | %5
 [=DB]2 [DF]2 [EG]2 [E_d]2 | [=Ec]2 [EG]2 [FA]2 [F_e]2 | [F=d]2 [Ee]2 [EF]2 (GA) | [EG]6 E2 | %9
 [GB]3 [FA] [EG]2 G2 | c3 z B [EA]2 A2 | [Dd]2 (cB) [Ee]2 [=DA]2 | [EB]6 [GB]2 | %13
 [_Gc]3 [GB] [GA]2 [GA]2 x | f3 z c [Fd]2 (cB) | [EA]2 (GF) [DE]2 [DB]2 | [CA]6 |] %17
V:2
 E2 | x8 | x8 | x2 E2 x4 | (D2 CB, C2) x2 | x8 | x8 | x6 =D2 | x6 E2 | x6 (ED) | C2 D2 x (FE) x2 | %11
 x2 E2 x4 | x8 | x9 | F2 F2 x _F2 x2 | x2 D2 x4 | x6 |] %17
V:3
 [A,C]2 | [A,C]2 A,2 [C,A,]2 [C,A,]2 | [D,A,]2 [F,A,]2 [G,B,]2 ([F,A,][G,B,]) | %3
 [A,C]2 [C,A,]2 [D,A,]2 [D,F,]2 | (F,2 E,D, E,2) A,2 | [A,B,]2 [A,B,]2 [G,B,]2 [G,B,]2 | %6
 [B,C]2 [B,C]2 [A,C]2 [A,C]2 | [A,B,]2 [G,B,]2 [A,C]2 B,2 | [E,B,]6 [E,G,]2 | %9
 [E,D]2 [E,D]2 [E,D]2 (CB,) | [E,A,]2 [E,B,]2 [E,C]2 (DC) x | [E,B,]2 [D,G,]2 [C,A,]2 [F,A,]2 | %12
 [E,G,]6 [E,E]2 | E3 z D [A,C]2 [A,C]2 | [D,D]2 [D,=A,]2 [D,B,]2 [D,D]2 x | %15
 [E,C]2 (B,A,) [E,G,]2 [E,G,]2 | [A,,A,]6 |] %17
V:4
 x2 | x2 A,2 x4 | x8 | x8 | A,,6 A,2 | x8 | x8 | x6 B,2 | x8 | x6 E,2 | x6 E,2 x | x8 | x8 | %13
 A,2 A,2 x5 | x9 | x2 E,2 x4 | x6 |] %17

